Origami/64x64/apps/zuluMount.svg

<svg width="64" height="64" version="1" xmlns="http://www.w3.org/2000/svg">
 <rect transform="matrix(0,-1,-1,0,0,0)" x="-60" y="-60" width="56" height="56" rx="3" ry="3" style="fill:#d92929"/>
 <path d="m7 4c-1.662 0-3 1.338-3 3v1c0-1.662 1.338-3 3-3h50c1.662 0 3 1.338 3 3v-1c0-1.662-1.338-3-3-3h-50z" style="fill:#ffffff;opacity:.1"/>
 <path d="m4 57v1c0 1.662 1.338 3 3 3h50c1.662 0 3-1.338 3-3v-1c0 1.662-1.338 3-3 3h-50c-1.662 0-3-1.338-3-3z" style="opacity:.2"/>
 <g transform="matrix(2 0 0 2 0 .97151502)" style="fill:none;opacity:.2;stroke-linecap:round;stroke-linejoin:round;stroke-width:2;stroke:#000000">
  <path d="m6.0142 13.014242h7.4858l-7 8.985758h8" style="stroke:#000000"/>
  <path d="m17 22v-12l4.4999 7 4.5-7v11.986" style="stroke:#000000"/>
 </g>
 <g transform="matrix(2 0 0 2 0 -.02848498)" style="fill:none;stroke-linecap:round;stroke-linejoin:round;stroke-width:2;stroke:#ff895e">
  <path d="m6.0142 13.014242h7.4858l-7 8.985758h8"/>
  <path d="m17 22v-12l4.4999 7 4.5-7v11.986"/>
 </g>
</svg>

<svg xmlns="http://www.w3.org/2000/svg" width="64" height="64" version="1">
 <rect style="fill:#d92929" width="56" height="56" x="-60" y="-60" rx="3" ry="3" transform="matrix(0,-1,-1,0,0,0)"/>
 <path style="opacity:0.1;fill:#ffffff" d="M 7 4 C 5.338 4 4 5.338 4 7 L 4 8 C 4 6.338 5.338 5 7 5 L 57 5 C 58.662 5 60 6.338 60 8 L 60 7 C 60 5.338 58.662 4 57 4 L 7 4 z"/>
 <path style="opacity:0.2" d="m 4,57 0,1 c 0,1.662 1.338,3 3,3 l 50,0 c 1.662,0 3,-1.338 3,-3 l 0,-1 c 0,1.662 -1.338,3 -3,3 L 7,60 C 5.338,60 4,58.662 4,57 Z"/>
 <g style="opacity:0.2;fill:none;stroke:#000000;stroke-width:2;stroke-linecap:round;stroke-linejoin:round" transform="matrix(2,0,0,2,0,0.97151502)">
  <path style="stroke:#000000" d="m 6.0142,13.014242 7.4858,0 L 6.5,22 l 8,0"/>
  <path style="stroke:#000000" d="m 17,22 0,-12 4.4999,7 4.5,-7 0,11.986"/>
 </g>
 <g style="fill:none;stroke:#ff895e;stroke-width:2;stroke-linecap:round;stroke-linejoin:round" transform="matrix(2,0,0,2,0,-0.02848498)">
  <path d="m 6.0142,13.014242 7.4858,0 L 6.5,22 l 8,0"/>
  <path d="m 17,22 0,-12 4.4999,7 4.5,-7 0,11.986"/>
 </g>
</svg>
